X: 11066
T: MISS McKINNON'S FIPPLE
C: Bob McQuillen 5 Dec 99
B: Bob's Note Book 11 #68
%R: jig
Z: 2020 John Chambers <jc:trillian.mit.edu>
M: 6/8
L: 1/8
K: G
E \
| DGG G2B | dBG AGE | DFF F2d | cBA GFE |\
| DGG G2B | dBG AGB | cAG FEF | AGG G2 :|
|: B \
| dBd g2e | dBG AGE | DFA c2d | cBc AFD |\
| GBd g2e | dBG AGE | DGB Adc | BGG G2 :|
%%begintext align
%% A couple of summers ago Lee Breslaw and
%% Sarah Nelson had a music party at their home over in Londonderry.
%% We were playing tunes out in their back yard beside a great big pile
%% of brush, when suddenly, the fipple (Q.V.!) in Lorna McKinnon's
%% recorder loosened up and went flying out into the brush! Oh dear!
%% Well, we started pulling the brush apart, and suddenly, Lorna
%% _found her fipple! Oh joy! Amazing!!
%%endtext

%%sep 1 1 500

%%sep 1 1 500

